X: 34405
T: Richard Dwyer's
R: reel
M: 4/4
K: Dmajor
|:d2 fd cdec|defd AdBA|GB (3BBB Ad (3ddd|gfed cecA|
d2 fd cdec|defd AdBA|GB (3BBB Ad (3ddd|cdec d4:|
|:fB (3BBB cdcB|A a2 g agfe|fB (3BBB cdcB|Aaag agfe|
d2 fd cdec|defd AdBA|GB (3BBB Ad (3ddd|cdec d4:|

